X: 29
T: D'eala Mairi liomsa
%R: waltz, minuet
B: "The Hibernian Muse" p.17 #2
F: http://imslp.org/wiki/The_Hibernian_Muse_%28Various%29
Z: 2015 John Chambers <jc:trillian.mit.edu>
P: No. XXIX.
M: 3/4
L: 1/8
Q: "Slow"
K: Amix
% - - - - - - - - - - - - - - - - - - - - - - - - - - - - -
V: 1
[|\
A4 Bc | F4 A>F |\
(E>F)A>F(B>A) | A6 |\
d4 e2 | {d}c4 d2 |\
(3(cBA) (3(BAF) HF2 | A4 (d/c/B/A/) |\
(3(BA)F F2 z2 |
(de f3) a |\
TfeTdcTBA | (3(BAF) F2 z2 |\
!p!A4 (d/c/B/A/) | (3(BAF) F2 z2 |\
!f!A4 Bc | F4 AF | (EFAF)(BA) | A6 |]
% - - - - - - - - - - - - - - - - - - - - - - - - - - - - -
V: 2 clef=bass middle=d
a2 A2 z2 | d2 D2 z2 |\
c2 d2 e2 | c2 A2 g2 |\
f2 d2 g2 | a2 g2 f2 |\
e2 c2 Hd2 | a2 A2 z2 |\
d2 D2 z2 |
z2 (defd) | a2 A2 z2 |\
d2 D2 z2 |\
!p!a2 A2 z2 | d2 Ddfd |\
!f!a2 A2 z2 | d2D2 z2 |\
d2 D2 d2 | A6 |]

%%sep 2 1 500
%%sep 1 1 500

